X:1
T:Rest for the Weary
T:Rest for the Weary
T: John William Dadmun (1819-1890)
T:Samuel Young Harmer, 1856
T:Public Domain Courtesy of the Cyber Hymnal™
C:John William Dadmun (1819-1890)
Z:Public Domain
Z:Courtesy of the Cyber Hymnal™
%%score 1 ( 2 3 )
L:1/8
Q:1/4=105
M:2/2
K:C
V:1 treble 
V:2 bass 
V:3 bass 
V:1
 [CE]>[DF] | [EG]2 [EG]2 [FA]3 [EG] | [EG] [Ec]3- [Ec]2 [Ec]>[Fd] | [Ge]3 [Fd] [Ec]2 [FA]2 | %4
w: 1.~In the|Christ- ian’s home in|glo- ry * There re-|mains a land of|
w: 2.~He is|fit- ting up my|man- sion, * Which e-|ter- nal- ly shall|
w: 3.~Pain and|sick- ness ne’er shall|en- ter, * Grief nor|woe my lot shall|
w: 4.~Death it-|self shall then be|van- quished, * And his|sting shall be with-|
 [EG]6 [CE]>[DF] | [EG]2 [EG]2 [FA]3 [EG] | [EG] [Ec]3- [Ec]2 [Ec]>[Ec] | [DB]3 [Ec] [Fd]2 [DB]2 | %8
w: rest; There my|Sav- ior’s gone be-|fore me, * To ful-|fill my soul’s re-|
w: stand, For my|stay shall not be|tran- sient, * In that|ho- ly, hap- py|
w: share; But, in|that ce- les- tial|cen- ter, * I a|crown of life shall|
w: drawn; Shout for|glad- ness, O ye|ran- somed! * Hail with|joy the ris- ing|
 [Ec]6 |:"^Refrain" [CE]>[DF] | ([EG]2 [EG]2) [FA]3 [EG] | [EG] [Ec]3- [Ec]2 [Ec]>[Fd] | %12
w: quest.||||
w: land.|There is|rest * for the|wear- y, * There is|
w: wear.|On the|other * side of|Jor- dan, * In the|
w: morn.||||
 [Ge]4 [Ee]3 [Ed] | [Fd] [Fc]3- [Fc]2 [Ec]>[GB] | ([FA]2 [FA]2) [Ac]3 [FA] | %15
w: |||
w: rest for the|wear- y, * There is|rest * for the|
w: sweet fields of|E- den, * Where the|tree~of * life is|
w: |||
 [FA]2 [EG]2 [CE]2 [EG]2 | [Ec]4 [Fd]4 | [Ec]6 |] %18
w: |||
w: wear- y, There is|rest for|you.|
w: bloom- ing, There is|rest for|you.|
w: |||
V:2
 [C,G,]>[C,G,] | [C,G,]2 [C,C]2 [F,C]3 [C,C] | [C,C] [C,G,]3- [C,G,]2 [C,G,]>[C,G,] | %3
 [C,G,]3 [G,B,] [A,C]2 [F,C]2 | [C,C]6 [C,G,]>[C,G,] | [C,G,]2 [C,C]2 [F,C]3 [C,C] | %6
 [C,C] [C,G,]3- [C,G,]2 [C,G,]>[C,G,] | G,3 G, [G,,G,]2 [G,,G,]2 | [C,G,]6 |: [C,G,]>[C,G,] | %10
 ([C,C]2 [C,C]2) [F,C]3 [C,C] | [C,C] [C,G,]3- [C,G,]2 [C,G,]>[C,G,] | [C,G,]4 [C,G,]3 [C,G,] | %13
 [F,A,] [F,A,]3- [F,A,]2 [C,G,]>[E,C] | [F,C]2 [F,C]2 [F,C]3 [F,C] | %15
 [C,C]2 [C,C]2 [C,G,]2 [C,G,]2 | [C,G,]4 [G,,G,]4 | [C,G,]6 |] %18
V:3
 x2 | x8 | x8 | x8 | x8 | x8 | x8 | G,3 G, x4 | x6 |: x2 | x8 | x8 | x8 | x8 | x8 | x8 | x8 | x6 |] %18

